src/categories-icons-sprite/categories/svg-cat-cosmetics-aromatherapy.svg

<svg width="30" height="38" viewBox="0 0 30 38" fill="none" xmlns="http://www.w3.org/2000/svg">
<path class="p-FF637B" d="M29.6334 26.2903C29.6334 28.0454 28.9267 29.755 27.6959 30.986L25.0744 34.2685L14.8167 35.7274L9.64217 36.4566L4.55898 34.2685L1.93749 30.986C0.706642 29.755 0 28.0454 0 26.2903C0 24.535 0.706642 22.8254 1.93749 21.5945L9.11796 15.5597L12.7196 13.417L14.8167 13.5994L17.9624 13.8501L20.5154 15.5597L27.6959 21.5945C28.9267 22.8254 29.6334 24.535 29.6334 26.2903Z" fill="#58ADE5"/>
<path class="p-E63950" d="M29.6331 26.2903C29.6331 28.0454 28.9265 29.755 27.6956 30.986L25.0741 34.2685L14.8164 35.7274V13.5994L17.9621 13.8501L20.5151 15.5597L27.6956 21.5945C28.9265 22.8254 29.6331 24.535 29.6331 26.2903Z" fill="#4D98CB"/>
<path d="M15.9562 5.69873H13.6768V11.4734H15.9562V5.69873Z" fill="black"/>
<path d="M15.9562 5.69873H14.8164V11.4734H15.9562V5.69873Z" fill="black"/>
<path class="p-FDBF00" d="M4.55859 34.2686V38.0002H25.074V34.2686H4.55859Z" fill="#5FBEFF"/>
<path class="p-FDBF00" d="M19.6123 5.17432H10.0215V15.5595H19.6123V10.3669V5.17432Z" fill="#5FBEFF"/>
<path class="p-FF9100" d="M25.0741 34.2686H14.8164V38.0002H25.0741V34.2686Z" fill="#65B3E7"/>
<path class="p-FF9100" d="M19.6118 5.17432H14.8164V15.5595H19.6118V5.17432Z" fill="#65B3E7"/>
<path class="p-815638" d="M18.2359 1.13965H11.3975V5.69863H18.2359V1.13965Z" fill="#5FBEFF"/>
<path class="p-64422A" d="M18.2356 1.13965H14.8164V5.69863H18.2356V1.13965Z" fill="#65B3E7"/>
<path class="p-E0F4FF" d="M22.7953 4.55908H6.83887V6.83857H22.7953V4.55908Z" fill="#A1D1FD"/>
<path class="p-B9DFFC" d="M22.7946 4.55908H14.8164V6.83857H22.7946V4.55908Z" fill="#B9DFFC"/>
<path class="p-966641" d="M20.5156 0H9.11816V2.27949H20.5156V0Z" fill="#58ADE5"/>
<path class="p-7E5436" d="M20.5151 0H14.8164V2.27949H20.5151V0Z" fill="#4D98CB"/>
</svg>

<svg width="30" height="38" fill="none" xmlns="http://www.w3.org/2000/svg"><path class="p-FF637B" d="M29.633 26.29a6.68 6.68 0 01-1.937 4.696l-2.622 3.283-10.257 1.458-5.175.73-5.083-2.188-2.622-3.283A6.68 6.68 0 010 26.29a6.68 6.68 0 011.937-4.695l7.181-6.035 3.602-2.143 2.097.182 3.145.251 2.553 1.71 7.18 6.034a6.68 6.68 0 011.938 4.696z" fill="#58ADE5"/><path class="p-E63950" d="M29.633 26.29a6.68 6.68 0 01-1.937 4.696l-2.622 3.283-10.258 1.458V13.6l3.146.251 2.553 1.71 7.18 6.034a6.68 6.68 0 011.938 4.696z" fill="#4D98CB"/><path d="M15.956 5.699h-2.28v5.774h2.28V5.7z" fill="#000"/><path d="M15.956 5.699h-1.14v5.774h1.14V5.7z" fill="#000"/><path class="p-FDBF00" d="M4.559 34.269V38h20.515V34.27H4.559zM19.612 5.174h-9.59V15.56h9.59V5.174z" fill="#5FBEFF"/><path class="p-FF9100" d="M25.074 34.269H14.816V38h10.258V34.27zM19.612 5.174h-4.796V15.56h4.796V5.174z" fill="#65B3E7"/><path class="p-815638" d="M18.236 1.14h-6.838v4.559h6.838v-4.56z" fill="#5FBEFF"/><path class="p-64422A" d="M18.236 1.14h-3.42v4.559h3.42v-4.56z" fill="#65B3E7"/><path class="p-E0F4FF" d="M22.795 4.56H6.84v2.279h15.956v-2.28z" fill="#A1D1FD"/><path class="p-B9DFFC" d="M22.795 4.56h-7.979v2.279h7.979v-2.28z" fill="#B9DFFC"/><path class="p-966641" d="M20.516 0H9.118v2.28h11.398V0z" fill="#58ADE5"/><path class="p-7E5436" d="M20.515 0h-5.699v2.28h5.7V0z" fill="#4D98CB"/></svg>
